X: 1141
T:Gan Ainm
R:Barn Dance
A:Fermanagh
D:Session tape - Derrygonelly, Fermanagh 1993
O:Ireland
Z:Bernie Stocks
M:4/4
L:1/8
K:G
A2B^c A2G2|E2B^c B2A2|FGAB ^cBcd|(3efg af g4:|!
bagf g2d2|bagf g2d2|gfeg fedB|(3cde BA G4:|!
